X:1
T:Title
%%score ( 1 2 ) { 3 | 4 }
L:1/8
M:4/4
K:Bb
V:1 treble nm="Bright Piano"
V:2 treble 
V:3 bass nm="Bright Piano"
V:4 bass 
V:1
 z4[Q:1/4=100] [DB]2 [DB]2 | FE [B,D]2 [DB]2 [Fc]2 | [Fd]2 [FB]2 [Fd]2 cB | %3
 [FA]2 [FB]2 [FA]2 [=EG]2 |[M:2/4] [CF]4 | [DB]2 [DB]2 |[M:4/4] .F2 z2 z4 | [Fd]2 [FB]2 [Fd]2 cB | %8
 [FA]2 [FB]2 [FA]2 [=EG]2 |[M:2/4] [CF]4 | [Fc]2 [Fd]2 |[M:4/4] [Ee]2 [Fd]2 [Ec]2 [D=B]2 | %12
 [Ec]4 [Fc]2 [Fc]2 | [Fd]2 [Fc]2 [GB]2 [=Ec]2 | [FA]2 F2 [FB]2 [DB]2 | .F2 z2 z4 | %16
 [^Fd]4 [Ge]2 [=Fc]2 | [Fd]2 [Gc]2 [FB]2 [FA]2 |[M:2/4] [FB]4 |] %19
V:2
 x8 | C2 z2 z4 | z4 z2 =E2 | x8 |[M:2/4] x4 | x4 |[M:4/4] C-[CE] [B,D]2 [DB]2 [Fc]2 | z4 z2 =E2 | %8
 x8 |[M:2/4] x4 | x4 |[M:4/4] x8 | x8 | x8 | x8 | C-[CE] [B,D]2 [DB]2 [Gc]2 | x8 | x8 | %18
[M:2/4] x4 |] %19
V:3
 z4 F,2 F,2 | F,2 F,2 B,2 A,2 | B,2 D2 B,2 G,2 | F,2[K:treble] D2 C2 CB, |[M:2/4] A,4 | F,2 F,2 | %6
[M:4/4] F,2 F,2 B,2 A,2 | B,2 D2 B,2 G,2 | F,2[K:treble] D2 C2 CB, |[M:2/4] A,4 | A,2 B,2 | %11
[M:4/4] G,2 _A,2 G,2 G,2 | G,4 A,2 A,2 | B,2[K:treble] C2 D2 C2 | C2 A,2[K:bass] B,2 F,2 | %15
 F,2 F,2 B,2 G,2 | A,4[K:treble] C2 A,2 | B,2 E2 D2 C2 |[M:2/4] D4 |] %19
V:4
 z4 B,,2 B,,2 | A,,2 B,,2 G,2 F,2 | B,,2 B,,2 B,,2 C,2 | D,2 B,,2 C,2 C,2 |[M:2/4] F,,4 | %5
 B,,2 B,,2 |[M:4/4] A,,2 B,,2 G,2 F,2 | B,,2 B,,2 B,,2 C,2 | D,2 B,,2 C,2 C,2 |[M:2/4] F,,4 | %10
 F,E, D,2 |[M:4/4] C,2 F,2 z2 G,,2 | C,4 F,2 F,2 | z2 A,2 G,2 C,2 | F,2 F,2 D,2 B,,2 | %15
 A,,2 B,,2 G,2 E,2 | D,4 C,2 F,E, | D,2 E,2 F,2 F,,2 |[M:2/4] B,,4 |] %19

